src/icons/locked.svg

<svg xmlns="http://www.w3.org/2000/svg" width="512" height="512" viewBox="0 0 512 512">
    <path d="M134.9 409.5h242.3c8.7 0 16-7 16-15.8V242.3c0-8.7-7.1-15.7-16-15.7h-15.4v-22.1c0-29.7-11.6-62.6-30.4-82.5-18.9-19.7-45.8-32.5-75.3-32.5h-.2c-29.5 0-56.4 12.8-75.3 32.6-18.9 19.9-30.4 52.8-30.4 82.5v22.1h-15.4c-8.8 0-16 7-16 15.7v151.4c0 8.7 7.2 15.7 16.1 15.7zm53.2-205c0-19.5 7-43.6 20.1-57.3v-.3c12.6-13.3 29.9-21.1 47.7-21.1h.2c17.8 0 35.1 7.8 47.7 21.1v.2l-.1.1c13 13.7 20.1 37.9 20.1 57.3v22.1H188.1v-22.1z"/>
</svg>

<?xml version="1.0" encoding="UTF-8"?>
<svg width="512px" height="512px" viewBox="0 0 512 512" version="1.1" xmlns="http://www.w3.org/2000/svg" xmlns:xlink="http://www.w3.org/1999/xlink">
    <!-- Generator: Sketch 62 (91390) - https://sketch.com -->
    <title>locked</title>
    <desc>Created with Sketch.</desc>
    <g id="locked" stroke="none" stroke-width="1" fill="none" fill-rule="evenodd">
        <path d="M134.9,409.5 L377.2,409.5 C385.9,409.5 393.2,402.5 393.2,393.7 L393.2,242.3 C393.2,233.6 386.1,226.6 377.2,226.6 L361.8,226.6 L361.8,204.5 C361.8,174.8 350.2,141.9 331.4,122 C312.5,102.3 285.6,89.5 256.1,89.5 L255.9,89.5 C226.4,89.5 199.5,102.3 180.6,122.1 C161.7,142 150.2,174.9 150.2,204.6 L150.2,226.7 L134.8,226.7 C126,226.7 118.8,233.7 118.8,242.4 L118.8,393.8 C118.8,402.5 126,409.5 134.9,409.5 L134.9,409.5 Z M188.1,204.5 C188.1,185 195.1,160.9 208.2,147.2 L208.2,146.9 C220.8,133.6 238.1,125.8 255.9,125.8 L256.1,125.8 C273.9,125.8 291.2,133.6 303.8,146.9 L303.8,147.1 L303.7,147.2 C316.7,160.9 323.8,185.1 323.8,204.5 L323.8,226.6 L188.1,226.6 L188.1,204.5 Z" id="Shape" fill="#000000" fill-rule="nonzero"></path>
    </g>
</svg>
